!!!COM: Bach, Johann Sebastian
!!!CDT: 1685/3//-1750/7/28/
!!!OTL@@DE: Valet will ich dir geben
!!!AGN: 4-Part Chorale
!!!SCT: BH 024
!!!SCT: BWV 415
**harm	**root	**kern	**kern	**kern	**kern
!	!	!bass	!tenor	!alto	!soprno
*	*Iorgan	*Iorgan	*Iorgan	*Iorgan	*Iorgan
*M4/4	*M4/4	*M4/4	*M4/4	*M4/4	*M4/4
*met(c)	*met(c)	*met(c)	*met(c)	*met(c)	*met(c)
*MM60	*MM60	*MM60	*MM60	*MM60	*MM60
*k[f#c#g#d#a#e#b#]	*k[f#c#g#d#a#e#b#]	*k[f#c#g#d#a#e#b#]	*k[f#c#g#d#a#e#b#]	*k[f#c#g#d#a#e#b#]	*k[f#c#g#d#a#e#b#]
*C#:	*C#:	*C#:	*C#:	*C#:	*C#:
*>[A,A,B]	*>[A,A,B]	*>[A,A,B]	*>[A,A,B]	*>[A,A,B]	*>[A,A,B]
*>A	*>A	*>A	*>A	*>A	*>A
I	4DD	8C#	8E#	4G#	4c#
.	.	8BB#	8D#	.	.
=1	=1	=1	=1	=1	=1
I	4DD	8C#	8E#	4c#	4g#
.	.	8D#	8F#	.	.
Ib	4DD	8E#	8G#	4c#	4g#
.	.	8C#	8E#	.	.
IV	4GG	8F#	4F#	4c#	4a#
.	.	8E#	.	.	.
viiob	4CC#	4D#	8F#	[4f#	4b#
.	.	.	8G#	.	.
=2	=2	=2	=2	=2	=2
IVb	4GG	8AA#	4A#	4f#]	2cc#
.	.	8BB#	.	.	.
I	4DD	4C#	8G#	8e#	.
.	.	.	8F#	8d#	.
I;	4DD;	4CC#;	4G#;	4e#;	4cc#;
I	4DD	4c#	4g#	8g#	4ee#
.	.	.	.	8a#	.
=3	=3	=3	=3	=3	=3
viioD7/vi	4AA#	4G##	4f#	4b#	4dd#
vi7	4BB	8A#	4e#	4a#	4cc#
.	.	8G#	.	.	.
viioD7/V	4GG#	4F##	4e	4a#	4cc#
V	4AA	4G#	4d#	4g#	4b#
=4	=4	=4	=4	=4	=4
I;	2.DD;	2.C#;	2.e#y;	2.g#;	2.cc#;
=:|!	=:|!	=:|!	=:|!	=:|!	=:|!
*>B	*>B	*>B	*>B	*>B	*>B
I	4DD	4C#	8e#	4g#	8cc#
.	.	.	8f#	.	8dd#
=5	=5	=5	=5	=5	=5
I	4DD	8c#	4g#	4cc#	4ee#
.	.	8B#	.	.	.
vi	4BB	8A#	4c#	8cc#	4ee#
.	.	8G#	.	8b#	.
Vb/V	8EE	8F##	8d#	8a#	4.dd#
V7/V	8EE	8D#	8c#	8f##	.
iii	8FF#	8E#	8B#	8g#	.
viio/V	8GG#	8F##	8A#	8a#	8cc#
!!linebreak: 2
=6	=6	=6	=6	=6	=6
V	8AA	8G#	4G#	8d#	8b#
v7/vii	8GG#	8F##	.	8e#	8a#
Vb/iii	4CC#	8E#	4F##	4f##	4b#
.	.	8D##	.	.	.
iii;	4FF#;	4E#;	4B#;	4e#;	4g#;
iii7	4FF#	4E#	8e#	[4g#	4b#
.	.	.	8d#	.	.
=7	=7	=7	=7	=7	=7
vii/V	4GG#	8A#	4c#	8g#]	4cc#
.	.	8AA#	.	8f##	.
Vb	4AA	8BB#	4d#	[4g#	4b#
.	.	8C#	.	.	.
II	8EE	8D#	8d#	4g#]	4a#
vi7b	8BB	8C#	8e#	.	.
II7	4EE	8D#	8d#	4f##	4a#
.	.	8DD#	8c#	.	.
=8	=8	=8	=8	=8	=8
V;	2.AA;	2.GG#;	2.B#;	2.d#;	2.g#;
Vb	4AA	4BB#	4G#	4d#	4g#
=9	=9	=9	=9	=9	=9
I	4DD	8C#	4G#	4c#	8e#
.	.	8D#	.	.	8f#
I7	4DD	8E#	8c#	4c#	4g#
.	.	8C#	8B	.	.
IV	8GG	4F#	8A#	8c#	4a#
viio7c	8CC#	.	8B#	8d#	.
I7b	4DD	8E#	8c#	4e#	4g#
.	.	8D#	8B	.	.
=10	=10	=10	=10	=10	=10
V7b/ii	4BB	4C##	2A#	4e#	4g#
ii	4EE	4D#	.	4d#	8f#
.	.	.	.	.	8e#
VI;	4BB;	4AA#;	4A#;	4c##;	4e#;
V7b/IV	4DD	4EE#	4B	4c#	4g#
=11	=11	=11	=11	=11	=11
IV	4GG	8FF#	4A#	4c#	4f#
.	.	8GG#	.	.	.
vi7	4BB	8AA#	4A#	[4c#	4e#
.	.	8GG#	.	.	.
ii7	4EE	8FF#	4A#	4c#]	4d#
.	.	8DD#	.	.	.
V	4AA	4GG#	8G#	4B#	4d#
.	.	.	8F#	.	.
=12	=12	=12	=12	=12	=12
I;	2.DD;	2.CC#;	2.E#;	2.G#;	2.c#;
==	==	==	==	==	==
*-	*-	*-	*-	*-	*-
!!chor2scor: -l 2 -s 0.6 -o %b.pmx
!!!YEC: Copyright 1994, David Huron
!!!YEC: Changes/Additions 2001 by Craig Stuart Sapp
!!!YEN: United States of America
!!!SMA: 371 Bach Chorales, edited by Ludwig Erk, C.F. Peters
!!!PDT: 1850, 1865
!!!ONB: Harmony and Root analysis done manually
